svgs/thin/siren.svg

<svg xmlns="http://www.w3.org/2000/svg" viewBox="0 0 448 512"><!--! Font Awesome Pro 6.3.0 by @fontawesome - https://fontawesome.com License - https://fontawesome.com/license (Commercial License) Copyright 2023 Fonticons, Inc. --><path d="M55.03 359.9c4.375 .3125 8.375-2.594 8.906-6.969l23.88-193.8C91.13 132.3 113.8 112 140.5 112h167.1c26.72 0 49.34 20.31 52.66 47.22l23.88 193.8C384.6 357 388 360 392 360c.3125 0 .6562-.0313 .9687-.0625c4.406-.5313 7.5-4.531 6.969-8.906l-23.88-193.8C371.8 122.3 342.3 96 307.5 96H140.5C105.7 96 76.22 122.3 71.94 157.3l-23.88 193.8C47.53 355.4 50.63 359.4 55.03 359.9zM143.9 157.3l-23.88 193.8c-.5313 4.375 2.562 8.375 6.969 8.906C127.3 359.1 127.7 360 128 360c4 0 7.438-2.969 7.938-7.031l23.88-193.8c.5313-4.375-2.562-8.375-6.969-8.906C148.5 149.8 144.5 152.9 143.9 157.3zM416 384H32c-17.67 0-32 14.33-32 32v32c0 17.67 14.33 32 32 32h384c17.67 0 32-14.33 32-32v-32C448 398.3 433.7 384 416 384zM432 448c0 8.822-7.178 16-16 16H32c-8.822 0-16-7.178-16-16v-32c0-8.822 7.178-16 16-16h384c8.822 0 16 7.178 16 16V448z"/></svg>

<svg xmlns="http://www.w3.org/2000/svg" viewBox="0 0 448 512"><!-- Font Awesome Pro 6.0.0-alpha2 by @fontawesome - https://fontawesome.com License - https://fontawesome.com/license (Commercial License) --><path d="M55.031 359.938C59.406 360.25 63.406 357.344 63.938 352.969L87.813 159.219C91.125 132.312 113.75 112 140.469 112H307.531C334.25 112 356.875 132.312 360.187 159.219L384.062 352.969C384.562 357.031 388 360 392 360C392.312 360 392.656 359.969 392.969 359.938C397.375 359.406 400.469 355.406 399.937 351.031L376.062 157.281C371.781 122.344 342.312 96 307.531 96H140.469C105.688 96 76.219 122.344 71.938 157.281L48.062 351.031C47.531 355.406 50.625 359.406 55.031 359.938ZM143.938 157.281L120.062 351.031C119.531 355.406 122.625 359.406 127.031 359.938C127.344 359.969 127.688 360 128 360C132 360 135.438 357.031 135.938 352.969L159.813 159.219C160.344 154.844 157.25 150.844 152.844 150.312C148.469 149.812 144.469 152.906 143.938 157.281ZM416 384H32C14.326 384 0 398.326 0 416V448C0 465.672 14.326 480 32 480H416C433.674 480 448 465.672 448 448V416C448 398.326 433.674 384 416 384ZM432 448C432 456.822 424.822 464 416 464H32C23.178 464 16 456.822 16 448V416C16 407.178 23.178 400 32 400H416C424.822 400 432 407.178 432 416V448Z"/></svg>
